src/topics/icons/zigbee.svg

<svg height="256" preserveAspectRatio="xMidYMid" viewBox="0 0 256 256" width="256" xmlns="http://www.w3.org/2000/svg" xmlns:xlink="http://www.w3.org/1999/xlink"><radialGradient id="a" cx="50%" cy="50%" r="50%"><stop offset="0" stop-color="#dc001f"/><stop offset=".64214681" stop-color="#d5001d"/><stop offset=".823819839" stop-color="#ae0017"/><stop offset="1" stop-color="#590e0a"/></radialGradient><linearGradient id="b" x1="49.895367%" x2="49.994314%" y1="100%" y2="-1.92436%"><stop offset="0" stop-color="#d4001c"/><stop offset=".531343169" stop-color="#ec8a6c"/><stop offset=".887566854" stop-color="#fcefe7"/><stop offset="1" stop-color="#fdf7f1"/></linearGradient><path d="m0 128c0 70.7 57.3 128 128 128s128-57.3 128-128-57.3-128-128-128-128 57.3-128 128z" fill="url(#a)"/><path d="m41.8635294 60.3356863c0 28.6117647 38.3498039 20.7811764 85.6345096 20.7811764 47.284706 0 85.63451 7.8305883 85.63451-20.7811764 0-28.5113726-38.349804-51.70196081-85.63451-51.70196081-47.2847057-.10039216-85.6345096 23.09019611-85.6345096 51.70196081z" fill="url(#b)"/><path d="m89.5498039 201.687843c-.2007843-.301176 29.2141181-32.727843 63.6486271-66.56 34.133334-33.832157 63.146667-63.7490195 63.247059-63.7490195-1.104314-23.4917647-18.371765-34.8360784-33.932549-36.7435294-9.838431-2.0078431-82.6227449-4.6180392-123.9843135 1.8070588-7.7233777.9305275-15.4467554 1.9473048-23.2500775 3.2102208-.3038855.0491819-3.3641207 3.2334867-6.0896665 6.5236147-2.7946589 3.3735575-5.2493463 6.853957-4.9953961 6.8181897 23.6735362-3.3342665 47.3470725-5.5436027 71.0206088-6.6163255 24.3142558-1.1017559 48.6285108-1.0045416 72.9427668.3043003.501961.4015687-27.206275 31.1215687-61.339608 64.5521571-33.9325491 33.330196-64.6525491 64.150588-67.6643138 67.764706-.2007843 24.495686 20.5803921 33.932549 31.7239215 36.141176 51.7019613 5.019608 103.9008353 3.223249 155.6027963-5.1093 0 0 4.589508-5.169281 5.144196-6.117844.554687-.948563 4.530522-6.897894 4.403-6.879715-49.594005 7.069928-99.157854 9.263186-148.1837177 6.561761 1.0743432-.900476 1.1043137-1.204706 1.7066666-1.907451z" fill="#fff"/></svg>

<?xml version="1.0" encoding="UTF-8" standalone="no"?>
<svg width="256px" height="256px" viewBox="0 0 256 256" version="1.1" xmlns="http://www.w3.org/2000/svg" xmlns:xlink="http://www.w3.org/1999/xlink" preserveAspectRatio="xMidYMid">
    <defs>
        <radialGradient cx="50%" cy="50%" fx="50%" fy="50%" r="50%" id="radialGradient-1">
            <stop stop-color="#DC001F" offset="0%"></stop>
            <stop stop-color="#D5001D" offset="64.214681%"></stop>
            <stop stop-color="#AE0017" offset="82.3819839%"></stop>
            <stop stop-color="#590E0A" offset="100%"></stop>
        </radialGradient>
        <linearGradient x1="49.895367%" y1="100%" x2="49.9943142%" y2="-1.92435989%" id="linearGradient-2">
            <stop stop-color="#D4001C" offset="0%"></stop>
            <stop stop-color="#EC8A6C" offset="53.1343169%"></stop>
            <stop stop-color="#FCEFE7" offset="88.7566854%"></stop>
            <stop stop-color="#FDF7F1" offset="100%"></stop>
        </linearGradient>
    </defs>
	<g>
		<path d="M0,128 C0,198.7 57.3,256 128,256 C198.7,256 256,198.7 256,128 C256,57.3 198.7,0 128,0 C57.3,0 0,57.3 0,128 L0,128 Z" fill="url(#radialGradient-1)"></path>
		<path d="M41.8635294,60.3356863 C41.8635294,88.947451 80.2133333,81.1168627 127.498039,81.1168627 C174.782745,81.1168627 213.132549,88.947451 213.132549,60.3356863 C213.132549,31.8243137 174.782745,8.63372549 127.498039,8.63372549 C80.2133333,8.53333333 41.8635294,31.7239216 41.8635294,60.3356863 L41.8635294,60.3356863 Z" fill="url(#linearGradient-2)"></path>
		<path d="M89.5498039,201.687843 C89.3490196,201.386667 118.763922,168.96 153.198431,135.127843 C187.331765,101.295686 216.345098,71.3788235 216.44549,71.3788235 C215.341176,47.8870588 198.073725,36.5427451 182.512941,34.6352941 C172.67451,32.627451 99.8901961,30.0172549 58.5286275,36.4423529 C50.8052498,37.3728804 43.0818721,38.3896577 35.27855,39.6525737 C34.9746645,39.7017556 31.9144293,42.8860604 29.1888835,46.1761884 C26.3942246,49.5497459 23.9395372,53.0301454 24.1934874,52.9943781 C47.8670236,49.6601116 71.5405599,47.4507754 95.2140962,46.3780526 C119.528352,45.2762967 143.842607,45.373511 168.156863,46.6823529 C168.658824,47.0839216 140.950588,77.8039216 106.817255,111.23451 C72.8847059,144.564706 42.1647059,175.385098 39.1529412,178.999216 C38.9521569,203.494902 59.7333333,212.931765 70.8768627,215.140392 C122.578824,220.16 174.777698,218.363641 226.479659,210.031092 C226.479659,210.031092 231.069167,204.861811 231.623855,203.913248 C232.178542,202.964685 236.154377,197.015354 236.026855,197.033533 C186.43285,204.103461 136.869001,206.296719 87.8431373,203.595294 C88.9174805,202.694818 88.947451,202.390588 89.5498039,201.687843 Z" fill="#FFFFFF"></path>
	</g>
</svg>
